assets/img/braze_icons/medical-square.svg

<svg fill="none" height="24" viewBox="0 0 24 24" width="24" xmlns="http://www.w3.org/2000/svg"><path clip-rule="evenodd" d="m17.8385 2h-11.67704c-.52713-.00002-.98192-.00003-1.35649.03057-.39534.0323-.78856.10362-1.16694.29641-.56449.28762-1.02343.74656-1.31105 1.31105-.19279.37838-.26411.7716-.29641 1.16694-.0306.37457-.03059.82932-.03057 1.35645v11.67708c-.00002.5272-.00003.982.03057 1.3565.0323.3954.10362.7886.29641 1.167.28762.5645.74656 1.0234 1.31105 1.311.37838.1928.7716.2641 1.16694.2964.37457.0306.82933.0306 1.35647.0306h11.67716c.5271 0 .9819 0 1.3564-.0306.3954-.0323.7886-.1036 1.167-.2964.5645-.2876 1.0234-.7465 1.311-1.311.1928-.3784.2641-.7716.2964-1.167.0306-.3745.0306-.8293.0306-1.3564v-11.67716c0-.52714 0-.9819-.0306-1.35647-.0323-.39534-.1036-.78856-.2964-1.16694-.2876-.56449-.7465-1.02343-1.311-1.31105-.3784-.19279-.7716-.26411-1.167-.29641-.3745-.0306-.8293-.03059-1.3565-.03057zm-4.0597 4.77301c.0545.10695.0545.24696.0545.52699v2.06667c0 .28002 0 .42004.0545.52699.048.09408.1245.17054.2185.21854.107.0545.247.0545.527.0545h2.0667c.28 0 .42 0 .527.0545.0941.0479.1706.1244.2185.2185.0545.1069.0545.2469.0545.527v2.0666c0 .2801 0 .4201-.0545.527-.0479.0941-.1244.1706-.2185.2185-.107.0545-.247.0545-.527.0545h-2.0667c-.28 0-.42 0-.527.0545-.094.048-.1705.1245-.2185.2185-.0545.107-.0545.247-.0545.527v2.0667c0 .28 0 .42-.0545.527-.0479.0941-.1244.1706-.2185.2185-.1069.0545-.2469.0545-.527.0545h-2.0666c-.2801 0-.4201 0-.527-.0545-.0941-.0479-.1706-.1244-.2185-.2185-.0545-.107-.0545-.247-.0545-.527v-2.0667c0-.28 0-.42-.0545-.527-.048-.094-.12446-.1705-.21854-.2185-.10695-.0545-.24697-.0545-.52699-.0545h-2.06667c-.28003 0-.42004 0-.52699-.0545-.09409-.0479-.17058-.1244-.21851-.2185-.0545-.1069-.0545-.2469-.0545-.527v-2.0666c0-.2801 0-.4201.0545-.527.04793-.0941.12442-.1706.21851-.2185.10695-.0545.24696-.0545.52699-.0545h2.06667c.28002 0 .42004 0 .52699-.0545.09408-.048.17054-.12446.21854-.21854.0545-.10695.0545-.24697.0545-.52699v-2.06667c0-.28003 0-.42004.0545-.52699.0479-.09409.1244-.17058.2185-.21851.1069-.0545.2469-.0545.527-.0545h2.0666c.2801 0 .4201 0 .527.0545.0941.04793.1706.12442.2185.21851z" fill="#801ed7" fill-rule="evenodd"/></svg>

<svg width="24" height="24" viewBox="0 0 24 24" fill="none" xmlns="http://www.w3.org/2000/svg">
<path fill-rule="evenodd" clip-rule="evenodd" d="M17.8385 2H6.16146C5.63433 1.99998 5.17954 1.99997 4.80497 2.03057C4.40963 2.06287 4.01641 2.13419 3.63803 2.32698C3.07354 2.6146 2.6146 3.07354 2.32698 3.63803C2.13419 4.01641 2.06287 4.40963 2.03057 4.80497C1.99997 5.17954 1.99998 5.63429 2 6.16142V17.8385C1.99998 18.3657 1.99997 18.8205 2.03057 19.195C2.06287 19.5904 2.13419 19.9836 2.32698 20.362C2.6146 20.9265 3.07354 21.3854 3.63803 21.673C4.01641 21.8658 4.40963 21.9371 4.80497 21.9694C5.17954 22 5.6343 22 6.16144 22H17.8386C18.3657 22 18.8205 22 19.195 21.9694C19.5904 21.9371 19.9836 21.8658 20.362 21.673C20.9265 21.3854 21.3854 20.9265 21.673 20.362C21.8658 19.9836 21.9371 19.5904 21.9694 19.195C22 18.8205 22 18.3657 22 17.8386V6.16144C22 5.6343 22 5.17954 21.9694 4.80497C21.9371 4.40963 21.8658 4.01641 21.673 3.63803C21.3854 3.07354 20.9265 2.6146 20.362 2.32698C19.9836 2.13419 19.5904 2.06287 19.195 2.03057C18.8205 1.99997 18.3657 1.99998 17.8385 2ZM13.7788 6.77301C13.8333 6.87996 13.8333 7.01997 13.8333 7.3V9.36667C13.8333 9.64669 13.8333 9.78671 13.8878 9.89366C13.9358 9.98774 14.0123 10.0642 14.1063 10.1122C14.2133 10.1667 14.3533 10.1667 14.6333 10.1667L16.7 10.1667C16.98 10.1667 17.12 10.1667 17.227 10.2212C17.3211 10.2691 17.3976 10.3456 17.4455 10.4397C17.5 10.5466 17.5 10.6866 17.5 10.9667V13.0333C17.5 13.3134 17.5 13.4534 17.4455 13.5603C17.3976 13.6544 17.3211 13.7309 17.227 13.7788C17.12 13.8333 16.98 13.8333 16.7 13.8333H14.6333C14.3533 13.8333 14.2133 13.8333 14.1063 13.8878C14.0123 13.9358 13.9358 14.0123 13.8878 14.1063C13.8333 14.2133 13.8333 14.3533 13.8333 14.6333V16.7C13.8333 16.98 13.8333 17.12 13.7788 17.227C13.7309 17.3211 13.6544 17.3976 13.5603 17.4455C13.4534 17.5 13.3134 17.5 13.0333 17.5H10.9667C10.6866 17.5 10.5466 17.5 10.4397 17.4455C10.3456 17.3976 10.2691 17.3211 10.2212 17.227C10.1667 17.12 10.1667 16.98 10.1667 16.7V14.6333C10.1667 14.3533 10.1667 14.2133 10.1122 14.1063C10.0642 14.0123 9.98774 13.9358 9.89366 13.8878C9.78671 13.8333 9.64669 13.8333 9.36667 13.8333H7.3C7.01997 13.8333 6.87996 13.8333 6.77301 13.7788C6.67892 13.7309 6.60243 13.6544 6.5545 13.5603C6.5 13.4534 6.5 13.3134 6.5 13.0333V10.9667C6.5 10.6866 6.5 10.5466 6.5545 10.4397C6.60243 10.3456 6.67892 10.2691 6.77301 10.2212C6.87996 10.1667 7.01997 10.1667 7.3 10.1667H9.36667C9.64669 10.1667 9.78671 10.1667 9.89366 10.1122C9.98774 10.0642 10.0642 9.98774 10.1122 9.89366C10.1667 9.78671 10.1667 9.64669 10.1667 9.36667V7.3C10.1667 7.01997 10.1667 6.87996 10.2212 6.77301C10.2691 6.67892 10.3456 6.60243 10.4397 6.5545C10.5466 6.5 10.6866 6.5 10.9667 6.5H13.0333C13.3134 6.5 13.4534 6.5 13.5603 6.5545C13.6544 6.60243 13.7309 6.67892 13.7788 6.77301Z" fill="#801ED7"/>
</svg>
